!!!!SEGMENT: pl-wnifc--2714-n--001_nowakowski-jozef--12-etudes-op-25-1-moderato.krn
!!!cenid: 18xx:3899
!!!COM: Nowakowski, Józef
!!!COM-rismID: pe175316
!!!CDT: 1880/09/16-1865/08/27
!!!CNT: Polish
!!!GTL: 12 Etudes op. 25
!!!OTL: 1. Moderato
!!!OMV: 001
!!!PDT:
!!!AGN:
!!!SMS-siglum: PL-Wnifc
!!!SMS-shelfmark: 2714/n
!!!SMS-shelfwork: 001-001 G
!!!SMS-variant:
!!!SMS-altvar:
!!!NIFC-rismSourceID: 1001141174
!!!NIFC-rismChildID: 1001141175
!!!NIFC-islandoraID: nifc:211989
!!!URL-pdf-islandora: https://repozytorium.nifc.pl/islandora/object/nifc%3A211989/datastream/PDF/view
!!!URL-scan: https://polish.musicsources.pl/pl/lokalizacje/galeria/druki-muzyczne/16821 @EN{Scan on Polish Music Sources Website} @PL{Skany w portalu Dziedzictwo Muzyki Polskiej w otwartym dostępie}
!!!IIIF:
!!!ONB-nifc: UWAGA: w zbiorze znajdują się 3 Etiudy: 1. Moderato, 2. Allegro vivace, 3. Moderato
!!!AIN: 1 piano
!!!key: F
**kern	**fing	**kern	**fing	**dynam
*part2	*	*part1	*	*part1
*staff2	*	*staff1	*	*
*I"Pianoforte	*	*	*	*
*	*	*I'pf	*	*
*ICklav	*	*	*	*
*Ipiano	*	*	*	*
*clefF4	*	*clefG2	*	*
*k[b-]	*	*k[b-]	*	*
*F:	*	*F:	*	*
*M12/8	*	*M12/8	*	*
=1	=1	=1	=1	=1
*^	*	*^	*	*
!	!	!	!LO:TX:b:i:t=portando la melodia\ne sempre legato	!	!	!
!	!	!	!LO:TX:a:B:t=Moderato. .=84.	!	!	!
!	!	!	!LO:TX:a:B:t=Moderato	!	!	!
1.d	16D\LL	5	(16aa/LL	2.a\	5	p
.	16F\	3	16ff/	.	3	.
.	16E\	4	16gg/	.	4	.
.	16G\	2	16ee/	.	2	.
.	16F\	3	16ff/	.	3	.
.	16A\JJ	2	16dd/JJ	.	2	.
.	16D\LL	.	16aa/LL	.	.	.
.	16F\	.	16ff/	.	.	.
.	16E\	.	16gg/	.	.	.
.	16G\	.	16ee/	.	.	.
.	16F\	.	16ff/	.	.	.
.	16A\JJ	.	16dd/JJ	.	.	.
.	16D\LL	5	16bb-/LL	4.b-\	5	.
.	16G\	3	16gg/	.	3	.
.	16F\	4	16aa/	.	4	.
.	16A\	2	16ff/	.	2	.
.	16G\	3	16gg/	.	3	.
.	16B-\JJ	2	16ee/JJ	.	2	.
.	16D\LL	.	16bb-/LL	4.b-\	.	.
.	16G\	.	16gg/	.	.	.
.	16F\	.	16aa/	.	.	.
.	16A\	.	16ff/	.	.	.
.	16G\	.	16gg/	.	.	.
.	16B-\JJ	.	16ee/JJ	.	.	.
=2	=2	=2	=2	=2	=2	=2
[2.d/	16D\LL	.	16aa/LL	[2.a\	.	.
.	16F\	.	16ff/	.	.	.
.	16E\	.	16gg/	.	.	.
.	16G\	.	16ee/	.	.	.
.	16F\	.	16ff/	.	.	.
.	16A\JJ	.	16dd/JJ	.	.	.
.	16D\LL	.	16aa/LL	.	.	.
.	16F\	.	16ff/	.	.	.
.	16E\	.	16gg/	.	.	.
.	16G\	.	16ee/	.	.	.
.	16F\	.	16ff/	.	.	.
.	16A\JJ	.	16dd/JJ	.	.	.
4.d/]	16D\LL	.	16aa/LL	4.a\]	.	.
.	16F\	.	16ff/	.	.	.
.	16E\	.	16gg/	.	.	.
.	16G\	.	16ee/	.	.	.
.	16F\	.	16ff/	.	.	.
.	16A\JJ	.	16dd/JJ)	.	.	.
4.d/	16D\LL	.	(16ff/LL	4.f\	.	<
.	16F\	.	16dd/	.	.	.
.	16E\	.	16ee/	.	.	.
.	16G\	.	16cc#X/	.	.	.
.	16F\	.	16dd/	.	.	.
.	16A\JJ	.	16a/JJ	.	.	.
!!LO:LB:g=original
=3	=3	=3	=3	=3	=3	=3
2.A/	16AA\LL	.	16ff/LL	2.f\	.	[
.	16D\	.	16dd/	.	.	.
.	16C#X\	.	16ee/	.	.	.
.	16E\	.	16cc#X/	.	.	.
.	16D\	.	16dd/	.	.	.
.	16F\JJ	.	16a/JJ	.	.	.
.	16AA\LL	.	16ff/LL	.	.	.
.	16F\	.	16dd/	.	.	.
.	16C#\	.	16ee/	.	.	.
.	16E\	.	16cc#/	.	.	.
.	16D\	.	16dd/	.	.	.
.	16F\JJ	.	16a/JJ	.	.	.
2.G/	16AA\LL	.	16ee/LL	2.e\	.	>
.	16C#\	.	16cc#/	.	.	.
.	16BBn\	.	16dd/	.	.	.
.	16D\	.	16bn/	.	.	.
.	16C#\	.	16cc#/	.	.	.
.	16E\JJ	.	16a/JJ	.	.	.
.	16AA\LL	.	16ee/LL	.	.	.
.	16C#\	.	16cc#/	.	.	.
.	16BB\	.	16dd/	.	.	.
.	16D\	.	16b/	.	.	.
.	16C#\	.	16cc#/	.	.	.
.	16E\JJ	.	16a/JJ	.	.	.
=4	=4	=4	=4	=4	=4	=4
4.D/	16D\LL	.	16dd/LL	1.d	.	.
.	16F\	.	16a/	.	.	.
.	16E\	.	16b-X/	.	.	.
.	16G\	.	16g/	.	.	.
.	16F\	.	16a/	.	.	.
.	16A\JJ	.	16f/JJ	.	.	.
!!LO:LB:g=original
2.ryy	16D\LL	.	16dd/LL	.	.	.
.	16F\	.	16a/	.	.	.
.	16E\	.	16b-/	.	.	.
.	16G\	.	16g/	.	.	.
.	16F\	.	16a/	.	.	.
.	16A\JJ	.	16f/JJ	.	.	.
.	16D\LL	.	16dd/LL	.	.	.
.	16F\	.	16a/	.	.	.
.	16E\	.	16b-/	.	.	.
.	16G\	.	16g/	.	.	.
.	16F\	.	16a/	.	.	.
.	16A\JJ	.	16f/JJ	.	.	.
4.ryy	16D\LL	.	16dd/LL	.	.	.
.	16F\	.	16a/	.	.	.
.	16E\	.	16b-/	.	.	.
.	16G\	.	16g/	.	.	.
.	16F\	.	16a/	.	.	.
.	16A\JJ	.	16f/JJ)	.	.	.
=5	=5	=5	=5	=5	=5	=5
1.d	16D\LL	.	(16aa/LL	2.a\	.	<
.	16F\	.	16ff/	.	.	.
.	16E\	.	16gg/	.	.	.
.	16G\	.	16ee/	.	.	.
.	16F\	.	16ff/	.	.	.
.	16A\JJ	.	16dd/JJ	.	.	.
.	16D\LL	.	16aa/LL	.	.	.
.	16F\	.	16ff/	.	.	.
.	16E\	.	16gg/	.	.	.
.	16G\	.	16ee/	.	.	.
.	16F\	.	16ff/	.	.	.
.	16A\JJ	.	16dd/JJ	.	.	.
.	16D\LL	.	16bb-/LL	4.b-\	.	[
.	16G\	.	16gg/	.	.	.
.	16F\	.	16aa/	.	.	.
.	16A\	.	16ff/	.	.	.
.	16G\	.	16gg/	.	.	.
.	16B-\JJ	.	16ee/JJ	.	.	.
.	16D\LL	.	16gg/LL	4.g\	.	>
.	16G\	.	16dd#X/	.	.	.
.	16F#X\	.	16ee/	.	.	.
.	16A\	.	16cc#X/	.	.	.
.	16G\	.	16ddn/	.	.	.
.	16B-\JJ	.	16b-/JJ	.	.	.
=6	=6	=6	=6	=6	=6	=6
[2.d/	16D\LL	.	16aa/LL	2.a\	.	.
.	16Fn\	.	16ff/	.	.	]
.	16E\	.	16gg/	.	.	.
.	16G\	.	16ee/	.	.	.
.	16F\	.	16ff/	.	.	.
.	16A\JJ	.	16dd/JJ	.	.	.
.	16D\LL	.	16aa/LL	.	.	.
.	16F\	.	16ff/	.	.	.
.	16E\	.	16gg/	.	.	.
.	16G\	.	16ee/	.	.	.
.	16F\	.	16ff/	.	.	.
.	16A\JJ	.	16dd/JJ	.	.	.
4.d/]	16D\LL	.	16bb-/LL	4.b-\	.	<
.	16F\	.	16ff/	.	.	.
.	16E\	.	16gg/	.	.	.
.	16G\	.	16ee/	.	.	.
.	16F\	.	16ff/	.	.	.
.	16B-\JJ	.	16dd/JJ	.	.	.
4.d-X/	16D-X\LL	.	16bbn/LL	4.bn\	.	.
.	16F\	.	16aa-X/	.	.	.
.	16E\	.	16bb-X/	.	.	.
.	16G\	.	16gg/	.	.	.
.	16F\	.	16aa-X/	.	.	.
.	16G#X\JJ	.	16ff/JJ)	.	.	.
!!LO:LB:g=original
=7	=7	=7	=7	=7	=7	=7
[2.c/	16C\LL	.	(16ccc/LL	2.cc\	.	[ f
.	16F\	.	16aan/	.	.	.
.	16E\	.	16bb-/	.	.	.
.	16Gn\	.	16gg/	.	.	.
.	16F\	.	16aa/	.	.	.
.	16A\JJ	.	16ff/JJ	.	.	.
.	16C\LL	.	16ccc/LL	.	.	.
.	16F\	.	16aa/	.	.	.
.	16E\	.	16bb-/	.	.	.
.	16G\	.	16gg/	.	.	.
.	16F\	.	16aa/	.	.	.
.	16A\JJ	.	16ff/JJ	.	.	.
4.c/]	16C\LL	.	16bb-/LL	4.a\	.	>
.	16F\	.	16gg/	.	.	.
.	16E\	.	16aa/	.	.	.
.	16G\	.	16ff/	.	.	.
.	16F\	.	16gg/	.	.	.
.	16A\JJ	.	16ee/JJ	.	.	.
4.B-/	16C\LL	.	16gg/LL	4.g\	.	.
.	16E\	.	16dd#X/	.	.	.
.	16D\	.	16ee/	.	.	.
.	16F\	.	16cc#X/	.	.	.
.	16E\	.	16ddn/	.	.	.
.	16G\JJ	.	16b-/JJ	.	.	]
=8	=8	=8	=8	=8	=8	=8
[2.F/	16FF\LL	.	16ff/LL	1.f	.	.
.	16AA\	.	16cc/	.	.	.
.	16GG\	.	16dd/	.	.	.
.	16BB-\	.	16b-/	.	.	.
.	16AA\	.	16cc/	.	.	.
.	16C\JJ	.	16a/JJ	.	.	.
.	16FF\LL	.	16ff/LL	.	.	.
.	16AA\	.	16cc/	.	.	.
.	16GG\	.	16dd/	.	.	.
.	16BB-\	.	16b-/	.	.	.
.	16AA\	.	16cc/	.	.	.
.	16C\JJ	.	16a/JJ	.	.	.
4.F/_	16FF\LL	.	16ff/LL	.	.	.
.	16AA\	.	16cc/	.	.	.
.	16GG\	.	16dd/	.	.	.
.	16BB-\	.	16b-/	.	.	.
.	16AA\	.	16cc/	.	.	.
.	16C\JJ	.	16a/JJ	.	.	.
8F/]	8FF\	.	16ff/LL	.	.	.
.	.	.	16cc/	.	.	.
8r	8r	.	16dd/	.	.	.
.	.	.	16b-/	.	.	.
8r	8r	.	16cc/	.	.	.
.	.	.	16a/JJ)	.	.	.
!!LO:PB:g=original
=9	=9	=9	=9	=9	=9	=9
[2.D/	16DD\LL	.	(16ff/LL	[2.f\	.	.
.	16FF\	.	16dd/	.	.	.
.	16EE\	.	16ee/	.	.	.
.	16GG\	.	16cc#X/	.	.	.
.	16FF\	.	16dd/	.	.	.
.	16AA\JJ	.	16a/JJ	.	.	.
.	16DD\LL	.	16ff/LL	.	.	.
.	16FF\	.	16dd/	.	.	.
.	16EE\	.	16ee/	.	.	.
.	16GG\	.	16cc#/	.	.	.
.	16FF\	.	16dd/	.	.	.
.	16AA\JJ	.	16a/JJ	.	.	.
4.D/]	16DD\LL	.	16ff/LL	4.f\]	.	.
.	16FF\	.	16dd/	.	.	.
.	16EE\	.	16ee/	.	.	<
.	16GG\	.	16cc#/	.	.	.
.	16FF\	.	16dd/	.	.	.
.	16AA\JJ	.	16a/JJ	.	.	.
4.A/	16AA\LL	.	16ee/LL	4.e\	.	.
.	16Cn\	.	16ccn/	.	.	.
.	16BBn\	.	16dd/	.	.	.
.	16D\	.	16bn/	.	.	.
.	16C\	.	16cc/	.	.	.
.	16E\JJ	.	16a/JJ	.	.	[
=10	=10	=10	=10	=10	=10	=10
2.B-X/	16BB-X\LL	.	16dd/LL	2.d\	.	.
.	16D\	.	16b-X/	.	.	>
.	16C\	.	16cc/	.	.	.
.	16E-X\	.	16a/	.	.	.
.	16D\	.	16b-/	.	.	.
.	16F\JJ	.	16f/JJ	.	.	.
.	16BB-\LL	.	16dd/LL	.	.	.
.	16D\	.	16b-/	.	.	.
.	16C\	.	16cc/	.	.	.
.	16E-\	.	16a/	.	.	.
.	16D\	.	16b-/	.	.	]
!!LO:LB:g=original
.	16F\JJ	.	16f/JJ	.	.	.
2.F/	16FF\LL	.	16cc/LL	2.c\	.	.
.	16AA\	.	16a/	.	.	.
.	16GG\	.	16b-/	.	.	.
.	16BB-\	.	16g/	.	.	.
.	16AA\	.	16a/	.	.	.
.	16C\JJ	.	16f/JJ	.	.	.
.	16FF\LL	.	16cc/LL	.	.	.
.	16AA\	.	16a/	.	.	.
.	16GG\	.	16b-/	.	.	.
.	16BB-\	.	16g/	.	.	.
.	16AA\	.	16a/	.	.	.
.	16C\JJ	.	16f/JJ)	.	.	.
=11	=11	=11	=11	=11	=11	=11
2.D/	16DD\LL	.	(16b-/LL	2.B-\	.	.
.	16FF\	.	16f/	.	.	.
.	16EEn\	.	16g/	.	.	.
.	16GG\	.	16en/	.	.	<
.	16FF\	.	16f/	.	.	.
.	16BB-\JJ	.	16d/JJ	.	.	.
.	16DD\LL	.	16b-/LL	.	.	.
.	16FF\	.	16f/	.	.	.
.	16EE\	.	16g/	.	.	.
.	16GG\	.	16e/	.	.	.
.	16FF\	.	16f/	.	.	.
.	16BB-\JJ	.	16d/JJ	.	.	.
2.C/	16CC\LL	.	16cc/LL	4.c\	.	[
.	16EE\	.	16g/	.	.	.
.	16DD\	.	16a/	.	.	.
.	16FF\	.	16f/	.	.	.
.	16EE\	.	16g/	.	.	.
.	16GG\JJ	.	16e/JJ	.	.	.
.	16CC\LL	.	16cc/LL	4.B-\	.	>
.	16EE\	.	16g/	.	.	.
.	16DD\	.	16a/	.	.	.
.	16FF\	.	16f/	.	.	.
.	16EE\	.	16g/	.	.	.
.	16GG\JJ	.	16e/JJ	.	.	.
!!LO:LB:g=original
=12	=12	=12	=12	=12	=12	=12
[2.F/	16FF\LL	.	16a/LL	[2.A\	.	.
.	16AA\	.	16f/	.	.	.
.	16GG\	.	16g/	.	.	]
.	16BB-\	.	16e/	.	.	.
.	16AA\	.	16f/	.	.	.
.	16C\JJ	.	16c/JJ	.	.	.
.	16FF\LL	.	16a/LL	.	.	.
.	16AA\	.	16f/	.	.	.
.	16FF\	.	16g/	.	.	.
.	16BB-\	.	16e/	.	.	.
.	16AA\	.	16f/	.	.	.
.	16C\JJ	.	16c/JJ	.	.	.
4.F/_	16FF\LL	.	16a/LL	4.A\_	.	.
.	16AA\	.	16f/	.	.	.
.	16GG\	.	16g/	.	.	.
.	16BB-\	.	16e/	.	.	.
.	16AA\	.	16f/	.	.	.
.	16C\JJ	.	16c/JJ	.	.	.
8F/]	8FF\	.	16a/LL)	8A\]	.	.
.	.	.	(16c/	.	2	<
8r	8r	.	16f/	8r	4	.
.	.	.	16a/	.	1	.
8r	8r	.	16cc/	8r	.	.
.	.	.	16ff/JJ	.	.	[
=13	=13	=13	=13	=13	=13	=13
2.F/	16FF\LL	.	16aa/LL	2.a\	5	f
.	16AA\	.	16ff/	.	3	.
.	16GG\	.	16gg/	.	4	.
.	16BB-\	.	16ee/	.	2	.
.	16AA\	.	16ff/	.	3	.
.	16C\JJ	.	16cc/JJ	.	2	.
.	16FF\LL	.	16aa/LL	.	.	.
.	16AA\	.	16ff/	.	.	.
.	16GG\	.	16gg/	.	.	.
.	16BB-\	.	16ee/	.	.	.
.	16AA\	.	16ff/	.	.	.
!!LO:LB:g=original
.	16C\JJ	.	16cc/JJ	.	.	.
4.C/	16CC\LL	.	16gg/LL	4.g\	.	.
.	16EE\	.	16ee/	.	.	.
.	16DD\	.	16ff/	.	.	.
.	16FF\	.	16dd/	.	.	.
.	16EE\	.	16ee/	.	.	.
.	16GG\JJ	.	16cc/JJ	.	.	.
4.D/	16DD\LL	.	16ff/LL	4.f\	.	.
.	16FF\	.	16dd/	.	.	.
.	16EE\	.	16ee/	.	.	.
.	16GG\	.	16cc#X/	.	.	.
.	16FF\	.	16dd/	.	.	.
.	16AA\JJ	.	16a/JJ	.	.	.
=14	=14	=14	=14	=14	=14	=14
2.C/	16EE\LL	.	16ee/LL	4.e\	.	.
.	16GG#X\	.	16bn/	.	.	.
.	16FF#X\	.	16ccn/	.	.	.
.	16AA\	.	16a/	.	.	.
.	16GG#\	.	16b/	.	.	.
.	16BBn\JJ	.	16g#X/JJ	.	.	.
.	16EE\LL	.	16ee/LL	4.d\	.	.
.	16GG#\	.	16b/	.	.	.
.	16FF#\	.	16cc/	.	.	.
.	16AA\	.	16a/	.	.	.
.	16GG#\	.	16b/	.	.	.
.	16BB\JJ	.	16g#/JJ	.	.	.
2.A/	16AA\LL	.	16cc/LL	2.c\	.	.
.	16C\	.	16a/	.	.	.
.	16BB\	.	16b/	.	.	.
.	16D\	.	16g#/	.	.	.
.	16C\	.	16a/	.	.	.
.	16E\JJ	.	16e/JJ	.	.	.
.	16AA\LL	.	16cc/LL	.	.	.
.	16C\	.	16a/	.	.	.
.	16BB\	.	16b/	.	.	.
.	16D\	.	16g#/	.	.	.
.	16C\	.	16a/	.	.	.
.	16E\JJ	.	16e/JJ)	.	.	.
!!LO:LB:g=original
=15	=15	=15	=15	=15	=15	=15
2.D/	16DD\LL	.	(16bn/LL	2.Bn\	.	.
.	16FF\	.	16f/	.	.	.
.	16EE\	.	16gn/	.	.	.
.	16GG\	.	16e/	.	.	<
.	16FF\	.	16f/	.	.	.
.	16BBn\JJ	.	16d/JJ	.	.	.
.	16DD\LL	.	16b/LL	.	.	.
.	16FF\	.	16f/	.	.	.
.	16EE\	.	16g/	.	.	.
.	16GG\	.	16e/	.	.	.
.	16FF\	.	16f/	.	.	.
.	16BB\JJ	.	16d/JJ	.	.	[
2.E/	16EE\LL	.	16cc/LL	4.c\	.	.
.	16AA\	.	16a/	.	.	.
.	16GG#X\	.	16b/	.	.	.
.	16BB\	.	16g#X/	.	.	>
.	16AA\	.	16a/	.	.	.
.	16C\JJ	.	16e/JJ	.	.	.
.	16EE\LL	.	16b/LL	4.B\	.	.
.	16GG#\	.	16g#/	.	.	.
.	16FF#X\	.	16a/	.	.	.
.	16AA\	.	16f#X/	.	.	.
.	16GG#\	.	16g#/	.	.	.
.	16BB\JJ	.	16d/JJ	.	.	.
=16	=16	=16	=16	=16	=16	=16
[2.AA/	16AAA\LL	.	16a/LL	[2.A\	.	.
.	16CC\	.	16e/	.	.	]
.	16BBBn\	.	16fn/	.	.	.
.	16DD\	.	16d/	.	.	.
.	16CC\	.	16e/	.	.	.
.	16EE\JJ	.	16c/JJ	.	.	.
.	16AAA\LL	.	16a/LL	.	.	.
.	16CC\	.	16e/	.	.	.
.	16BBB\	.	16f/	.	.	.
.	16DD\	.	16d/	.	.	.
.	16CC\	.	16e/	.	.	.
.	16EE\JJ	.	16c/JJ	.	.	.
8AA/]	8AAA\	.	16a/LL	4.A\]	.	p
.	.	.	16e/	.	.	.
8r	8r	.	16f/	.	.	.
.	.	.	16d/	.	.	.
8r	8r	.	16e/	.	.	.
.	.	.	16c/JJ)	.	.	.
4r	4r	.	(16a/LL	4.A\	.	<
.	.	.	16e/	.	.	.
.	.	.	16f/	.	.	.
.	.	.	16d/	.	.	.
8r	8r	.	16e/	.	.	.
.	.	.	16c/JJ	.	.	[
!!LO:PB:g=original
=17	=17	=17	=17	=17	=17	=17
2.D/	16DD\LL	.	16b-/LL	2.B-\	.	.
.	16FF\	.	16f/	.	.	.
.	16EEn\	.	16g/	.	.	.
.	16GG\	.	16en/	.	.	.
.	16FF\	.	16f/	.	.	.
.	16BB-\JJ	.	16d/JJ	.	.	.
.	16DD\LL	.	16b-/LL	.	.	.
.	16FF\	.	16f/	.	.	.
.	16EE\	.	16g/	.	.	.
.	16GG\	.	16e/	.	.	.
.	16FF\	.	16f/	.	.	.
.	16BB-\JJ	.	16d/JJ	.	.	.
4.E/	16EE\LL	.	16cc/LL	4.c\	.	.
.	16GG\	.	16g/	.	.	.
.	16FF\	.	16a/	.	.	.
.	16AA\	.	16f/	.	.	.
.	16GG\	.	16g/	.	.	.
.	16BB-\JJ	.	16e/JJ	.	.	.
4.C/	16CC\LL	.	16cc/LL	4.B-\	.	.
.	16EE\	.	16g/	.	.	.
.	16DD\	.	16a/	.	.	.
.	16FF\	.	16f/	.	.	.
.	16EE\	.	16g/	.	.	.
.	16GG\JJ	.	16e/JJ	.	.	.
=18	=18	=18	=18	=18	=18	=18
1.F	16FF\LL	.	16a/LL	[2.A\	.	.
.	16AA\	.	16f/	.	.	.
.	16GG\	.	16g/	.	.	.
.	16BB-\	.	16e/	.	.	.
.	16AA\	.	16f/	.	.	.
.	16C\JJ	.	16c/JJ	.	.	.
.	16FF\LL	.	16a/LL	.	.	>
.	16AA\	.	16f/	.	.	.
.	16GG\	.	16g/	.	.	.
.	16BB-\	.	16e/	.	.	.
.	16AA\	.	16f/	.	.	.
.	16C\JJ	.	16c/JJ	.	.	.
.	16FF\LL	.	16a/LL	4.A\]	.	.
.	16AA\	.	16f/	.	.	.
.	16GG\	.	16g/	.	.	.
.	16BB-\	.	16e/	.	.	.
.	16AA\	.	16f/	.	.	.
.	16C\JJ	.	16c/JJ)	.	.	]
.	16FF\LL	.	(16a/LL	4.F\	.	.
.	16AA\	.	16c/	.	.	<
.	16GG\	.	16d/	.	.	.
.	16BB-\	.	16B-/	.	.	.
.	16AA\	.	16c/	.	.	.
.	16C\JJ	.	16A/JJ	.	.	.
!!LO:LB:g=original
=19	=19	=19	=19	=19	=19	=19
[2.B-/	16BB-\LL	.	16dd/LL	2.d\	.	.
.	16D\	.	16b-/	.	.	.
.	16C\	.	16cc/	.	.	.
.	16E-X\	.	16a/	.	.	.
.	16D\	.	16b-/	.	.	[
.	16F\JJ	.	16f/JJ	.	.	.
.	16BB-\LL	.	16dd/LL	.	.	.
.	16D\	.	16b-/	.	.	.
.	16C\	.	16cc/	.	.	.
.	16E-\	.	16a/	.	.	.
.	16D\	.	16b-/	.	.	.
.	16F\JJ	.	16f/JJ	.	.	.
4.B-/]	16BB-\LL	.	16een/LL	4.en\	.	.
.	16D\	.	16b-/	.	.	.
.	16C\	.	16cc/	.	.	.
.	16E-X\	.	16a/	.	.	.
.	16D\	.	16b-/	.	.	.
.	16F\JJ	.	16f/JJ	.	.	.
4.B-/	16BB-\LL	.	16dd/LL	4.d\	.	.
.	16D\	.	16b-/	.	.	.
.	16C\	.	16cc/	.	.	.
.	16E-\	.	16a/	.	.	.
.	16D\	.	16b-/	.	.	.
.	16F\JJ	.	16f/JJ	.	.	.
=20	=20	=20	=20	=20	=20	=20
1.F	16FF\LL	.	16cc/LL	2.c\	.	>
.	16AA\	.	16a/	.	.	.
.	16GG\	.	16b-/	.	.	.
.	16BB-\	.	16g/	.	.	.
.	16AA\	.	16a/	.	.	.
.	16C\JJ	.	16f/JJ	.	.	.
.	16FF\LL	.	16cc/LL	.	.	.
.	16AA\	.	16a/	.	.	.
.	16GG\	.	16b-/	.	.	.
.	16BB-\	.	16g/	.	.	.
.	16AA\	.	16a/	.	.	.
.	16C\JJ	.	16f/JJ	.	.	.
.	16FF\LL	.	16a/LL	2.A\	.	.
.	16AA\	.	16f/	.	.	.
.	16GG\	.	16g/	.	.	.
.	16BB-\	.	16e/	.	.	]
.	16AA\	.	16f/	.	.	.
.	16C\JJ	.	16c/JJ	.	.	.
.	16FF\LL	.	16a/LL	.	.	.
.	16AA\	.	16f/	.	.	.
.	16GG\	.	16g/	.	.	.
.	16BB-\	.	16e/	.	.	.
.	16AA\	.	16f/	.	.	.
.	16C\JJ	.	16c/JJ)	.	.	.
!!LO:LB:g=original
=21	=21	=21	=21	=21	=21	=21
2.D/	16DD\LL	.	(16dd/LL	4.d\	.	>
.	16FF#X\	.	16a/	.	.	.
.	16EE\	.	16b-/	.	.	.
.	16GG\	.	16g/	.	.	.
.	16FF#\	.	16a/	.	.	.
.	16AA\JJ	.	16f#X/JJ	.	.	.
.	16DD\LL	.	16dd/LL	4.c\	.	.
.	16FF#\	.	16a/	.	.	.
.	16EE\	.	16b-/	.	.	.
.	16GG\	.	16g/	.	.	.
.	16FF#\	.	16a/	.	.	.
.	16AA\JJ	.	16f#/JJ	.	.	.
2.G/	16GG\LL	.	16b-/LL	2.B-\	.	]
.	16BB-\	.	16g/	.	.	.
.	16AA\	.	16a/	.	.	.
.	16C\	.	16f#/	.	.	.
.	16BB-\	.	16g/	.	.	.
.	16D\JJ	.	16d/JJ	.	.	.
.	16GG\LL	.	16b-/LL	.	.	.
.	16BB-\	.	16g/	.	.	.
.	16AA\	.	16a/	.	.	.
.	16C\	.	16f#/	.	.	.
.	16BB-\	.	16g/	.	.	.
.	16D\JJ	.	16d/JJ)	.	.	.
=22	=22	=22	=22	=22	=22	=22
2.C/	16CC\LL	.	(16cc/LL	4.c\	.	>
.	16EE\	.	16g/	.	.	.
.	16DD\	.	16a/	.	.	.
.	16FFn\	.	16fn/	.	.	.
.	16EE\	.	16g/	.	.	.
.	16GG\JJ	.	16e/JJ	.	.	.
.	16CC\LL	.	16cc/LL	4.B-\	.	.
.	16EE\	.	16g/	.	.	.
.	16DD\	.	16a/	.	.	.
.	16FF\	.	16f/	.	.	.
.	16EE\	.	16g/	.	.	.
!!LO:LB:g=original
.	16GG\JJ	.	16e/JJ	.	.	.
2.F/	16FF\LL	.	16a/LL	2.A\	.	]
.	16AA\	.	16f/	.	.	.
.	16GG\	.	16g/	.	.	.
.	16BB-\	.	16e/	.	.	.
.	16AA\	.	16f/	.	.	.
.	16C\JJ	.	16c/JJ	.	.	.
.	16FF\LL	.	16a/LL	.	.	.
.	16AA\	.	16f/	.	.	.
.	16GG\	.	16g/	.	.	.
.	16BB-\	.	16e/	.	.	.
.	16AA\	.	16f/	.	.	.
.	16C\JJ	.	16c/JJ)	.	.	.
=23	=23	=23	=23	=23	=23	=23
!	!	!	!	!LO:TX:t=cresc.:dur=4q:ext=ud:problem:text with extention lines	!	!
2.E/	16EE\LL	.	(16a/LL	4.A\	.	<
.	16AA\	.	16e/	.	.	.
.	16GG#X\	.	16f/	.	.	.
.	16BBn\	.	16d/	.	.	.
.	16AA\	.	16e/	.	.	.
.	16C#X\JJ	.	16c#X/JJ	.	.	.
.	16EE\LL	.	16g/LL	4.G\	.	.
.	16AA\	.	16cn/	.	.	.
.	16GG#\	.	16d/	.	.	.
.	16BB\	.	16Bn/	.	.	.
.	16AA\	.	16c/	.	.	.
.	16C#\JJ	.	16A/JJ	.	.	.
4.D/	16DD\LL	.	16f/LL	4.F\	.	.
.	16FF\	.	16d/	.	.	.
.	16EE\	.	16e/	.	.	.
.	16GGn\	.	16c/	.	.	.
.	16FF\	.	16d/	.	.	.
.	16AA\JJ	.	16A/JJ	.	.	.
4.BB-X/	16BBB-X\LL	.	16g/LL	4.G\	.	.
.	16DD\	.	16d/	.	.	.
.	16CC#X\	.	16e/	.	.	.
.	16EE\	.	16c/	.	.	.
.	16DD\	.	16d/	.	.	.
.	16EE\JJ	.	16B-X/JJ	.	.	.
!!LO:LB:g=original
=24	=24	=24	=24	=24	=24	=24
[2.AA/	16AAA\LL	.	16a/LL	[2.A\	.	>
.	16CC#X\	.	16e/	.	.	.
.	16BBBn\	.	16f/	.	.	.
.	16DD\	.	16d/	.	.	.
.	16CC#\	.	16e/	.	.	.
.	16EE\JJ	.	16c#X/JJ	.	.	.
.	16AAA\LL	.	16a/LL	.	.	.
.	16CC#\	.	16e/	.	.	.
.	16BBB\	.	16f/	.	.	.
.	16DD\	.	16d/	.	.	.
.	16CC#\	.	16e/	.	.	.
.	16EE\JJ	.	16c#/JJ	.	.	.
4.AA/]	16AAA\LL	.	16a/LL	4.A\]	.	.
.	16CC#\	.	16e/	.	.	.
.	16BBB\	.	16f/	.	.	.
.	16DD\	.	16d/	.	.	.
.	16CC#\	.	16e/	.	.	.
.	16EE\JJ	.	16c#/JJ	.	.	.
4.GG/	16GGG\LL	.	(16b-X/LL)	4.B-X\	.	>
.	16BBB-X\	.	16g/	.	.	.
.	16AAA\	.	16a/	.	.	.
.	16CCn\	.	16f/	.	.	.
.	16BBB-\	.	16g/	.	.	.
.	16DD\JJ	.	16e/JJ	.	.	.
=25	=25	=25	=25	=25	=25	=25
[2.AA/	16AAA\LL	.	16a/LL	[2.A\	.	]
.	16CC#X\	.	16e/	.	.	.
.	16BBBn\	.	16f/	.	.	.
.	16DD\	.	16d/	.	.	.
.	16CC#\	.	16e/	.	.	.
.	16EE\JJ	.	16c#X/JJ	.	.	.
.	16AAA\LL	.	16a/LL	.	.	.
.	16CC#\	.	16e/	.	.	.
.	16BBB\	.	16f/	.	.	.
.	16DD\	.	16d/	.	.	.
.	16CC#\	.	16e/	.	.	.
!!LO:PB:g=original
.	16EE\JJ	.	16c#/JJ	.	.	.
4.AA/]	16AAA\LL	.	16a/LL	4.A\]	.	.
.	16CC#X\	.	16e/	.	.	.
.	16BBBn\	.	16f/	.	.	.
.	16DD\	.	16d/	.	.	.
.	16CC#\	.	16e/	.	.	.
.	16EE\JJ	.	16c#X/JJ	.	.	.
4.GG/	16GGG\LL	.	(16b-X/LL)	4.B-X\	.	>
.	16BBB-X\	.	16g/	.	.	.
.	16AAA\	.	16a/	.	.	.
.	16CCn\	.	16f/	.	.	.
.	16BBB-\	.	16g/	.	.	.
.	16DD\JJ	.	16e/JJ	.	.	.
=26	=26	=26	=26	=26	=26	=26
2.AA/	16AAA\LL	.	16a/LL	2.A\	.	.
.	16CC#X\	.	16e/	.	.	.
.	16BBBn\	.	16f/	.	.	]
.	16DD\	.	16d/	.	.	.
.	16CC#\	.	16e/	.	.	.
.	16EE\JJ	.	16c#X/JJ	.	.	.
.	16AAA\LL	.	16a/LL	.	.	.
.	16CC#\	.	16e/	.	.	.
.	16BBB\	.	16f/	.	.	.
.	16DD\	.	16d/	.	.	.
.	16CC#\	.	16e/	.	.	.
.	16EE\JJ	.	16c#/JJ	.	.	.
*	*	*	*clefF4	*	*	*
4.AA/	16AAA\LL	.	16e/LL	4.E^\	.	.
.	16CC#\	.	16c#X/	.	.	.
.	16BBB\	.	16d/	.	.	.
.	16DD\	.	16Bn/	.	.	.
.	16CC#\	.	16c#/	.	.	.
.	16EE\JJ	.	16A/JJ	.	.	.
4.AA/	16AAA\LL	.	16c#/LL	4.C#X^\	.	.
.	16CC#\	.	16A/	.	.	.
.	16BBB\	.	16Bn/	.	.	.
.	16DD\	.	16G#X/	.	.	.
.	16CC#\	.	16A/	.	.	.
.	16EE\JJ	.	16E/JJ	.	.	.
*v	*v	*	*	*	*	*
*	*	*v	*v	*	*
!!LO:LB:g=original
=27	=27	=27	=27	=27
8EE 8AAA/	.	16A\LL)	5	p
.	.	16AA\	.	.
8r	.	16GG#X\	2	.
.	.	16AA\	1	.
8r	.	16C#X\	2	.
.	.	16E\JJ	.	.
4r	.	16A^\LL	.	.
.	.	16C#\	.	.
.	.	16BB#X\	.	.
.	.	16C#\	2	.
8r	.	16E\	1	.
.	.	16A\JJ	2	.
2.r	.	16c#X^\LL	4	.
.	.	16E\	1	.
.	.	16D#X\	2	.
.	.	16E\	1	.
.	.	16A\	.	.
.	.	16c#\JJ	.	.
.	.	16e^\LL	5	.
.	.	16A\	.	.
.	.	16G#X\	.	.
.	.	16A\	.	.
.	.	16c#\	.	.
.	.	16e\JJ	.	.
=28	=28	=28	=28	=28
*	*	*clefG2	*	*
1.r	.	16a^/LL	.	<
.	.	16c#X/	.	.
.	.	16B#X/	.	.
.	.	16c#/	.	.
.	.	16e/	.	.
.	.	16a/JJ	.	.
.	.	16cc#X^/LL	.	.
.	.	16e/	.	.
.	.	16d#X/	.	.
.	.	16e/	.	.
.	.	16a/	.	.
.	.	16cc#/JJ	.	.
.	.	16ee^\LL	.	.
.	.	16a\	.	.
.	.	16g#X\	.	.
.	.	16a\	.	.
.	.	16cc#\	.	.
.	.	16ee\JJ	.	.
.	.	16aa^\LL	.	.
.	.	16a\	.	.
.	.	16g#\	.	.
.	.	16a\	.	.
.	.	16cc#\	.	.
.	.	16ee\JJ	.	.
!!LO:LB:g=original
=29	=29	=29	=29	=29
8e 8A\	.	(16aa^\LL	.	.
.	.	16cc#X\	.	.
8r	.	16a\	.	.
.	.	16ee\	3	.
(8g 8G^\	.	(16bb-^\)	5	.
.	.	16dd\JJ	1	.
8e 8A'\)	.	16aa\LL	5	.
.	.	16cc#\	2	.
8r	.	16a\	.	.
.	.	16ee\	.	.
(8g 8G^\	.	(16bb-^\)	.	.
.	.	16dd\JJ	1	.
8e 8A'\)	.	16aa\LL	.	.
.	.	16cc#\	2	.
8r	.	16a\	.	.
.	.	16ee\	.	.
(8g 8G^\	.	(16bb-^\)	.	.
.	.	16dd\JJ	2	.
!	!	!LO:TX:b:i:t=rallent.	!	!
8e 8A'\)	.	16aa\LL	.	.
.	.	16a\	.	.
8r	.	16aa\	.	.
.	.	16a\	.	.
8r	.	16aa\	.	.
.	.	16a\JJ)	.	.
=30	=30	=30	=30	=30
*^	*	*^	*	*
!	!	!	!LO:TX:a:B:t=a tempo	!	!	!
1.d	16D\LL	.	(16aa/LL	2.a\	.	f
.	16F\	.	16ff/	.	.	.
.	16E\	.	16gg/	.	.	<
.	16G\	.	16ee/	.	.	.
.	16F\	.	16ff/	.	.	.
.	16A\JJ	.	16dd/JJ	.	.	.
.	16D\LL	.	16aa/LL	.	.	.
.	16F\	.	16ff/	.	.	.
.	16E\	.	16gg/	.	.	.
.	16G\	.	16ee/	.	.	.
.	16F\	.	16ff/	.	.	.
.	16A\JJ	.	16dd/JJ	.	.	.
!!LO:LB:g=original
.	16D\LL	.	16bb-/LL	4.b-\	.	[
.	16G\	.	16gg/	.	.	.
.	16F\	.	16aa/	.	.	.
.	16A\	.	16ff/	.	.	.
.	16G\	.	16gg/	.	.	.
.	16B-\JJ	.	16ee/JJ	.	.	.
.	16D\LL	.	16bb-/LL	4.b-\	.	.
.	16G\	.	16gg/	.	.	.
.	16F\	.	16aa/	.	.	.
.	16A\	.	16ff/	.	.	.
.	16G\	.	16gg/	.	.	.
.	16B-\JJ	.	16ee/JJ	.	.	.
=31	=31	=31	=31	=31	=31	=31
[2.d/	16D\LL	.	16aa/LL	[2.a\	.	.
.	16F\	.	16ff/	.	.	.
.	16E\	.	16gg/	.	.	.
.	16G\	.	16ee/	.	.	.
.	16F\	.	16ff/	.	.	.
.	16A\JJ	.	16dd/JJ	.	.	.
.	16D\LL	.	16aa/LL	.	.	.
.	16F\	.	16ff/	.	.	.
.	16E\	.	16gg/	.	.	.
.	16G\	.	16ee/	.	.	.
.	16F\	.	16ff/	.	.	.
.	16A\JJ	.	16dd/JJ	.	.	>
4.d/]	16D\LL	.	16aa/LL	4.a\]	.	.
.	16F\	.	16ff/	.	.	.
.	16E\	.	16gg/	.	.	.
.	16G\	.	16ee/	.	.	.
.	16F\	.	16ff/	.	.	.
.	16A\JJ	.	16dd/JJ)	.	.	]
4.d/	16D\LL	.	(16ff/LL	4.f\	.	.
.	16F\	.	16dd/	.	.	<
.	16E\	.	16ee/	.	.	.
.	16G\	.	16cc#X/	.	.	.
.	16F\	.	16dd/	.	.	.
.	16A\JJ	.	16a/JJ	.	.	[
!!LO:LB:g=original
=32	=32	=32	=32	=32	=32	=32
2.A/	16AA\LL	.	16ff/LL	2.f\	.	.
.	16D\	.	16dd/	.	.	.
.	16C#X\	.	16ee/	.	.	.
.	16E\	.	16cc#X/	.	.	.
.	16D\	.	16dd/	.	.	.
.	16F\JJ	.	16a/JJ	.	.	.
.	16AA\LL	.	16ff/LL	.	.	.
.	16F\	.	16dd/	.	.	.
.	16C#\	.	16ee/	.	.	.
.	16E\	.	16cc#/	.	.	.
.	16D\	.	16dd/	.	.	.
.	16F\JJ	.	16a/JJ	.	.	.
2.G/	16AA\LL	.	16ee/LL	2.e\	.	>
.	16C#\	.	16cc#/	.	.	.
.	16BBn\	.	16dd/	.	.	.
.	16D\	.	16bn/	.	.	.
.	16C#\	.	16cc#/	.	.	.
.	16E\JJ	.	16a/JJ	.	.	.
.	16AA\LL	.	16ee/LL	.	.	.
.	16C#\	.	16cc#/	.	.	.
.	16BB\	.	16dd/	.	.	.
.	16D\	.	16b/	.	.	.
.	16C#\	.	16cc#/	.	.	.
.	16E\JJ	.	16a/JJ	.	.	.
=33	=33	=33	=33	=33	=33	=33
4.D/	16D\LL	.	16dd/LL	1.d	.	p
.	16F\	.	16a/	.	.	.
.	16E\	.	16b-X/	.	.	.
.	16G\	.	16g/	.	.	.
.	16F\	.	16a/	.	.	.
.	16A\JJ	.	16f/JJ	.	.	.
2.ryy	16D\LL	.	16dd/LL	.	.	.
.	16F\	.	16a/	.	.	.
.	16E\	.	16b-/	.	.	.
.	16G\	.	16g/	.	.	.
.	16F\	.	16a/	.	.	.
.	16A\JJ	.	16f/JJ	.	.	.
.	16D\LL	.	16dd/LL	.	.	.
.	16F\	.	16a/	.	.	.
.	16E\	.	16b-/	.	.	.
.	16G\	.	16g/	.	.	.
.	16F\	.	16a/	.	.	.
.	16A\JJ	.	16f/JJ	.	.	.
4.ryy	8D\	.	16dd/LL	.	.	.
.	.	.	16a/	.	.	.
.	8r	.	16b-/	.	.	.
.	.	.	16g/	.	.	.
.	8r	.	16a/	.	.	.
.	.	.	16f/JJ)	.	.	.
!!LO:PB:g=original
=34	=34	=34	=34	=34	=34	=34
1.d	16D\LL	.	(16aa/LL	2.a\	.	mf
.	16F\	.	16ff/	.	.	.
.	16E\	.	16gg/	.	.	.
.	16G\	.	16ee/	.	.	.
.	16F\	.	16ff/	.	.	.
.	16A\JJ	.	16dd/JJ	.	.	<
.	16D\LL	.	16aa/LL	.	.	.
.	16F\	.	16ff/	.	.	.
.	16E\	.	16gg/	.	.	.
.	16G\	.	16ee/	.	.	.
.	16F\	.	16ff/	.	.	.
.	16A\JJ	.	16dd/JJ	.	.	.
.	16D\LL	.	16bb-/LL	4.b-\	.	[
.	16G\	.	16gg/	.	.	.
.	16F\	.	16aa/	.	.	.
.	16A\	.	16ff/	.	.	.
.	16G\	.	16gg/	.	.	.
.	16B-\JJ	.	16ee/JJ	.	.	.
.	16D\LL	.	16gg/LL	4.g\	.	>
.	16G\	.	16dd#X/	.	.	.
.	16F#X\	.	16ee/	.	.	.
.	16A\	.	16cc#X/	.	.	.
.	16G\	.	16ddn/	.	.	.
.	16B-\JJ	.	16b-/JJ	.	.	.
=35	=35	=35	=35	=35	=35	=35
[2.d/	16D\LL	.	16aa/LL	2.a\	.	]
.	16Fn\	.	16ff/	.	.	.
.	16E\	.	16gg/	.	.	.
.	16G\	.	16ee/	.	.	.
.	16F\	.	16ff/	.	.	.
.	16A\JJ	.	16dd/JJ	.	.	.
.	16D\LL	.	16aa/LL	.	.	.
.	16F\	.	16ff/	.	.	.
.	16E\	.	16gg/	.	.	.
.	16G\	.	16ee/	.	.	.
.	16F\	.	16ff/	.	.	.
.	16A\JJ	.	16dd/JJ	.	.	.
4.d/]	16D\LL	.	16bb-/LL	4.b-\	.	<
.	16F\	.	16ff/	.	.	.
.	16E\	.	16gg/	.	.	.
.	16G\	.	16ee/	.	.	.
.	16F\	.	16ff/	.	.	.
.	16B-\JJ	.	16dd/JJ	.	.	.
4.d-X/	16D-X\LL	.	16bbn/LL	4.bn\	.	.
.	16F\	.	16aa-X/	.	.	.
.	16E\	.	16bb-X/	.	.	.
.	16G\	.	16gg/	.	.	.
.	16F\	.	16aa-X/	.	.	.
.	16G#X\JJ	.	16ff/JJ	.	.	[
!!LO:LB:g=original
=36	=36	=36	=36	=36	=36	=36
[2.c/	16C\LL	.	16ccc/LL	2.cc\	.	ff
.	16F\	.	16aan/	.	.	.
.	16E\	.	16bb-/	.	.	.
.	16Gn\	.	16gg/	.	.	.
.	16F\	.	16aa/	.	.	.
.	16A\JJ	.	16ff/JJ	.	.	.
.	16C\LL	.	16ccc/LL	.	.	.
.	16F\	.	16aa/	.	.	.
.	16E\	.	16bb-/	.	.	.
.	16G\	.	16gg/	.	.	.
.	16F\	.	16aa/	.	.	.
.	16A\JJ	.	16ff/JJ	.	.	.
4.c/]	16C\LL	.	16bb-/LL	4.a\	.	.
.	16F\	.	16gg/	.	.	.
.	16E\	.	16aa/	.	.	>
.	16G\	.	16ff/	.	.	.
.	16F\	.	16gg/	.	.	.
.	16A\JJ	.	16ee/JJ	.	.	.
4.B-/	16C\LL	.	16gg/LL	4.g\	.	.
.	16E\	.	16dd#X/	.	.	.
.	16D\	.	16ee/	.	.	.
.	16F\	.	16cc#X/	.	.	.
.	16E\	.	16ddn/	.	.	.
.	16G\JJ	.	16b-/JJ	.	.	]
=37	=37	=37	=37	=37	=37	=37
[2.F/	16FF\LL	.	16ff/LL	[2.f\	.	.
.	16AA\	.	16cc/	.	.	.
.	16GG\	.	16dd/	.	.	.
.	16BB-\	.	16b-/	.	.	.
.	16AA\	.	16cc/	.	.	.
.	16C\JJ	.	16a/JJ	.	.	.
.	16FF\LL	.	16ff/LL	.	.	.
.	16AA\	.	16cc/	.	.	.
.	16GG\	.	16dd/	.	.	.
.	16BB-\	.	16b-/	.	.	.
.	16AA\	.	16cc/	.	.	.
.	16C\JJ	.	16a/JJ	.	.	.
4.F/]	16FF\LL	.	16ff/LL	4.f\]	.	.
.	16AA\	.	16cc/	.	.	.
.	16GG\	.	16dd/	.	.	.
.	16BB-\	.	16b-/	.	.	.
.	16AA\	.	16cc/	.	.	.
.	16C\JJ	.	16a/JJ)	.	.	.
4.A^/	16AA\LL	.	(16aa^/LL	4.a\	.	.
.	16C#X\	.	16ee/	.	.	<
.	16BBn\	.	16ff/	.	.	.
.	16D\	.	16dd/	.	.	.
.	16C#\	.	16ee/	.	.	.
.	16E\JJ	.	16cc#X/JJ	.	.	[
!!LO:LB:g=original
=38	=38	=38	=38	=38	=38	=38
1.d	16D\LL	.	16aa/LL	2.a\	.	.
.	16F\	.	16ff/	.	.	.
.	16E\	.	16gg/	.	.	.
.	16G\	.	16ee/	.	.	.
.	16F\	.	16ff/	.	.	.
.	16A\JJ	.	16dd/JJ	.	.	.
.	16D\LL	.	16aa/LL	.	.	.
.	16F\	.	16ff/	.	.	.
.	16E\	.	16gg/	.	.	.
.	16G\	.	16ee/	.	.	.
.	16F\	.	16ff/	.	.	.
.	16A\JJ	.	16dd/JJ	.	.	.
.	16D\LL	.	16bb-/LL	4.b-\	.	.
.	16G\	.	16gg/	.	.	.
.	16F\	.	16aa/	.	.	.
.	16A\	.	16ff/	.	.	.
.	16G\	.	16gg/	.	.	.
.	16B-\JJ	.	16ee/JJ	.	.	.
.	16D\LL	.	16bb-/LL	4.b-\	.	.
.	16G\	.	16gg/	.	.	.
.	16F\	.	16aa/	.	.	.
.	16A\	.	16ff/	.	.	.
.	16G\	.	16gg/	.	.	.
.	16B-\JJ	.	16ee/JJ	.	.	.
=39	=39	=39	=39	=39	=39	=39
[2.d/	16D\LL	.	16aa/LL	[2.a\	.	.
.	16F\	.	16ff/	.	.	.
.	16E\	.	16gg/	.	.	.
.	16G\	.	16ee/	.	.	.
.	16F\	.	16ff/	.	.	.
.	16A\JJ	.	16dd/JJ	.	.	.
.	16D\LL	.	16aa/LL	.	.	.
.	16F\	.	16ff/	.	.	.
.	16E\	.	16gg/	.	.	.
.	16G\	.	16ee/	.	.	.
.	16F\	.	16ff/	.	.	.
.	16A\JJ	.	16dd/JJ	.	.	.
4.d/]	16D\LL	.	16aa/LL	4.a\]	.	.
.	16F\	.	16ff/	.	.	.
.	16E\	.	16gg/	.	.	.
.	16G\	.	16ee/	.	.	.
.	16F\	.	16ff/	.	.	.
.	16A\JJ	.	16dd/JJ)	.	.	.
4.d/	16D\LL	.	(16ff/LL	4.f\	.	.
.	16F\	.	16dd/	.	.	.
.	16E\	.	16ee/	.	.	.
.	16G\	.	16cc#X/	.	.	.
.	16F\	.	16dd/	.	.	.
.	16A\JJ	.	16a/JJ	.	.	.
!!LO:LB:g=original
=40	=40	=40	=40	=40	=40	=40
[2.A/	16AA\LL	.	16ff/LL	2.f\	.	.
.	16D\	.	16dd/	.	.	.
.	16C#X\	.	16ee/	.	.	.
.	16E\	.	16cc#X/	.	.	.
.	16D\	.	16dd/	.	.	.
.	16F\JJ	.	16a/JJ	.	.	.
.	16AA\LL	.	16ff/LL	.	.	.
.	16D\	.	16dd/	.	.	.
.	16C#\	.	16ee/	.	.	.
.	16E\	.	16cc#/	.	.	.
.	16D\	.	16dd/	.	.	.
.	16F\JJ	.	16a/JJ	.	.	.
4.A/]	16AA\LL	.	16ee/LL	2.e\	.	.
.	16C#\	.	16cc#/	.	.	.
.	16BBn\	.	16dd/	.	.	.
.	16D\	.	16bn/	.	.	.
.	16C#\	.	16cc#/	.	.	.
.	16E\JJ	.	16a/JJ	.	.	.
4.G/	16AA\LL	.	16ee/LL	.	.	.
.	16C#\	.	16cc#/	.	.	.
.	16BB\	.	16dd/	.	.	.
.	16D\	.	16b/	.	.	.
.	16C#\	.	16cc#/	.	.	.
.	16E\JJ	.	16a/JJ	.	.	.
=41	=41	=41	=41	=41	=41	=41
4.D/	16D\LL	.	16dd/LL	[2.d\	.	.
.	16F\	.	16a/	.	.	.
.	16E\	.	16b-X/	.	.	.
.	16G\	.	16g/	.	.	.
.	16F\	.	16a/	.	.	.
.	16A\JJ	.	16f/JJ	.	.	.
2.ryy	16D\LL	.	16dd/LL	.	.	.
.	16F\	.	16a/	.	.	.
.	16E\	.	16b-/	.	.	.
.	16G\	.	16g/	.	.	.
.	16F\	.	16a/	.	.	.
!!LO:LB:g=original
.	16A\JJ	.	16f/JJ	.	.	.
.	16D\LL	.	16dd/LL	4.d\]	.	.
.	16F\	.	16a/	.	.	.
.	16E\	.	16b-/	.	.	.
.	16G\	.	16g/	.	.	.
.	16F\	.	16a/	.	.	.
.	16A\JJ	.	16f/JJ	.	.	.
4.ryy	8D\	.	16dd/LL)	4r	.	.
.	.	.	(16d/	.	1	<
.	8r	.	16f/	.	2	.
.	.	.	16a/	.	1	.
.	8r	.	16dd/	8r	.	.
.	.	.	16ff/JJ	.	.	[
=42	=42	=42	=42	=42	=42	=42
4.d/	16D\LL	.	16aa/LL	2.a\	.	.
.	16F\	.	16ff/	.	.	.
.	16E\	.	16gg/	.	.	.
.	16G\	.	16ee/	.	.	.
.	16F\	.	16ff/	.	.	.
.	16A\JJ	.	16dd/JJ	.	.	.
!	!	!	!LO:TX:t=cresc.:dur=8q:ext=ud:problem:text with extention lines	!	!	!
4.c/	16C\LL	5	16aa/LL	.	.	<
.	16D\	3	16ff#X/	.	.	.
.	16C#X\	4	16gg/	.	.	.
.	16En\	2	16ee/	.	.	.
.	16D\	3	16ff#/	.	.	.
.	16F#X\JJ	2	16dd/JJ	.	.	.
4.B-/	16BB-\LL	5	16ddd/LL	4.dd\	.	.
.	16D\	3	16bb-/	.	.	.
.	16C#X\	4	16cccn/	.	.	.
.	16E\	2	16aa/	.	.	.
.	16D\	3	16bb-/	.	.	.
.	16G\JJ	2	16gg/JJ	.	.	.
4.A/	16AA\LL	.	16ccc/LL	4.cc\	.	.
.	16D\	.	16gg#X/	.	.	.
.	16C#\	.	16aa/	.	.	.
.	16En\	.	16ee#X/	.	.	.
.	16D\	.	16ff#X/	.	.	.
.	16F#\JJ	.	16dd/JJ	.	.	.
!!LO:PB:g=original
=43	=43	=43	=43	=43	=43	=43
4.G/	16GG\LL	.	16bb-/LL	4.b-\	.	.
.	16BB-\	.	16gg/	.	.	.
.	16AA\	.	16aa/	.	.	.
.	16Cn\	.	16ff#X/	.	.	.
.	16BB-\	.	16gg/	.	.	.
.	16D\JJ	.	16dd/JJ	.	.	.
4.F/	16FF\LL	.	16aa/LL	4.a\	.	.
.	16AA\	.	16ffn/	.	.	.
.	16GG#X\	.	16gg/	.	.	.
.	16BBn\	.	16ee/	.	.	.
.	16AA\	.	16ff/	.	.	.
.	16D\JJ	.	16dd/JJ	.	.	.
4.E/	16EE\LL	.	16gg#X/LL	4.g#X\	.	.
.	16BB\	.	16dd/	.	.	.
.	16AA#X\	.	16ee/	.	.	.
.	16C#X\	.	16cc#X/	.	.	.
.	16BB\	.	16dd/	.	.	.
.	16D\JJ	.	16bn/JJ	.	.	.
4.An/	16AA#\LL	.	16ggn/LL	4.gn\	.	.
.	16C#\	.	16ee/	.	.	.
.	16BB\	.	16ff/	.	.	.
.	16D\	.	16dd/	.	.	.
.	16C#\	.	16ee/	.	.	.
.	16E\JJ	.	16cc#/JJ	.	.	]
=44	=44	=44	=44	=44	=44	=44
2.B-X/	16BB-X\LL	.	16ff/LL	2.f\	.	f
.	16D\	.	16ee/	.	.	.
.	16C#X\	.	16ee/	.	.	.
.	16En\	.	16cc#X/	.	.	.
.	16D\	.	16dd/	.	.	.
.	16F\JJ	.	16b-X/JJ	.	.	.
.	16BB-\LL	.	16ff/LL	.	.	.
.	16D\	.	16dd/	.	.	.
.	16C#\	.	16ee/	.	.	.
.	16E\	.	16cc#/	.	.	.
.	16D\	.	16dd/	.	.	.
!!LO:LB:g=original
.	16F\JJ	.	16b-/JJ	.	.	.
!	!	!	!LO:TX:t=dim.:dur=8q:ext=ud:problem:text with extention lines	!	!	!
2.G/	16GG\LL	.	16ee/LL	2.e\	.	>
.	16BB-\	.	16b-/	.	.	.
.	16AA\	.	16ccn/	.	.	.
.	16Cn\	.	16a/	.	.	.
.	16BB-\	.	16b-/	.	.	.
.	16D\JJ	.	16g/JJ	.	.	.
.	16GG\LL	.	16ee/LL	.	.	.
.	16BB-\	.	16b-/	.	.	.
.	16AA\	.	16cc/	.	.	.
.	16C\	.	16a/	.	.	.
.	16BB-\	.	16b-/	.	.	.
.	16D\JJ	.	16g/JJ	.	.	.
=45	=45	=45	=45	=45	=45	=45
2.A/	16AA\LL	.	16dd/LL	2.d\	.	.
.	16D\	.	16a/	.	.	.
.	16C#X\	.	16b-/	.	.	.
.	16E\	.	16g#X/	.	.	.
.	16D\	.	16a/	.	.	.
.	16F\JJ	.	16f/JJ	.	.	.
.	16AA\LL	.	16dd/LL	.	.	.
.	16D\	.	16a/	.	.	.
.	16C#\	.	16b-/	.	.	.
.	16E\	.	16g#/	.	.	.
.	16D\	.	16a/	.	.	.
.	16F\JJ	.	16f/JJ	.	.	.
2.G/	16AA\LL	.	16cc#X/LL	2.c#X\	.	.
.	16C#\	.	16gn/	.	.	.
.	16BBn\	.	16a/	.	.	.
.	16D\	.	16f/	.	.	.
.	16C#\	.	16g/	.	.	.
.	16E\JJ	.	16e/JJ	.	.	.
.	16AA\LL	.	16cc#/LL	.	.	.
.	16C#\	.	16g/	.	.	.
.	16BB\	.	16a/	.	.	.
.	16D\	.	16f/	.	.	.
.	16C#\	.	16g/	.	.	.
.	16E\JJ	.	16e/JJ	.	.	]
!!LO:LB:g=original
=46	=46	=46	=46	=46	=46	=46
[2.D/	16DD\LL	.	(16dd/LL)	4.d\	.	p
.	16FF#X\	.	16a/	.	.	.
.	16EE\	.	16b-X/	.	.	.
.	16GG\	.	16g/	.	.	.
.	16FF#\	.	16a/	.	.	.
.	16AA\JJ	.	16f#X/JJ	.	.	.
.	16DD\LL	.	16cc/LL	4.c\	.	.
.	16FF#\	.	16a/	.	.	.
.	16EE\	.	16b-/	.	.	.
.	16GG\	.	16g/	.	.	.
.	16FF#\	.	16a/	.	.	.
.	16AA\JJ	.	16f#/JJ	.	.	.
4.D/]	16DD\LL	.	16bn/LL	4.Bn\	.	.
.	16GG\	.	16g/	.	.	.
.	16FF#\	.	16a/	.	.	.
.	16AA\	.	16f#/	.	.	.
.	16GG\	.	16g/	.	.	.
.	16BBn\JJ	.	16d/JJ	.	.	.
4.D/	16DD\LL	.	16b-X/LL	4.B-X\	.	.
.	16GG\	.	16g/	.	.	.
.	16FF#\	.	16a/	.	.	.
.	16AA\	.	16f#/	.	.	.
.	16GG\	.	16g/	.	.	.
.	16BB-X\JJ	.	16d/JJ	.	.	.
=47	=47	=47	=47	=47	=47	=47
4.D/	16DD\LL	.	16a/LL	4.A\	.	.
.	16FFn\	.	16fn/	.	.	.
.	16EE\	.	16g/	.	.	.
.	16GG\	.	16e/	.	.	.
.	16FF\	.	16f/	.	.	.
.	16AA\JJ	.	16d/JJ	.	.	.
4.BB-/	16BBB-\LL	.	16g/LL	4.G\	.	.
.	16DD\	.	16d/	.	.	.
.	16CC#X\	.	16e/	.	.	.
.	16EE\	.	16c#X/	.	.	.
.	16DD\	.	16d/	.	.	.
.	16GG\JJ	.	16B-/JJ	.	.	.
4.AA/	16AAA\LL	.	16a/LL	4.A\	.	<
.	16DD\	.	16f/	.	.	.
.	16CC#\	.	16g/	.	.	.
.	16EE\	.	16e/	.	.	.
.	16DD\	.	16f/	.	.	.
.	16FF\JJ	.	16d/JJ	.	.	.
4.GG/	16GGG\LL	.	16b-/LL	4.B-\	.	.
.	16BBB-\	.	16g/	.	.	.
.	16AAA\	.	16a/	.	.	.
.	16CCn\	.	16f/	.	.	.
.	16BBB-\	.	16g/	.	.	.
.	16DD\JJ	.	16e/JJ	.	.	.
!!LO:LB:g=original
=48	=48	=48	=48	=48	=48	=48
2.AA/	16AAA\LL	.	16a/LL	2.A\	.	[
.	16DD\	.	16f/	.	.	.
.	16CC#X\	.	16g/	.	.	>
.	16EE\	.	16e/	.	.	.
.	16DD\	.	16f/	.	.	.
.	16FF\JJ	.	16d/JJ	.	.	.
.	16AAA\LL	.	16a/LL	.	.	.
.	16DD\	.	16f/	.	.	.
.	16CC#\	.	16g/	.	.	.
.	16EE\	.	16e/	.	.	.
.	16DD\	.	16f/	.	.	.
.	16FF\JJ	.	16d/JJ	.	.	]
*	*	*	*clefF4	*	*	*
2.AA/	16AAA\LL	.	16c#X/LL	2.C#X\	.	.
.	16CC#\	.	16G/	.	.	.
.	16BBBn\	.	16A/	.	.	.
.	16DD\	.	16F/	.	.	.
.	16CC#\	.	16G/	.	.	.
.	16EE\JJ	.	16E/JJ	.	.	.
.	16AAA\LL	.	16c#/LL	.	.	.
.	16CC#\	.	16G/	.	.	.
.	16BBB\	.	16A/	.	.	.
.	16DD\	.	16F/	.	.	.
.	16CC#\	.	16G/	.	.	.
.	16EE\JJ	.	16E/JJ	.	.	.
*v	*v	*	*	*	*	*
=49	=49	=49	=49	=49	=49
16DDD/LL	.	16d/LL	2.D\	.	pp
16DD/	.	16A/	.	.	.
16DDD/	.	16B-/	.	.	.
16DD/	.	16G/	.	.	.
16DDD/	.	16A/	.	.	.
16DD/JJ	.	16Fn/JJ	.	.	.
16DDD/LL	.	16d/LL	.	.	.
16DD/	.	16A/	.	.	.
16DDD/	.	16B-/	.	.	.
16DD/	.	16G/	.	.	.
16DDD/	.	16A/	.	.	.
16DD/JJ	.	16F/JJ)	.	.	.
16DDD/LL	.	(16d/LL	4.D\	.	.
16DD/	.	16A/	.	.	.
16DDD/	.	16B-/	.	.	<
16DD/	.	16G/	.	.	.
16DDD/	.	16A/	.	.	.
16DD/JJ	.	16F/JJ	.	.	.
16DDD/LL	.	16d/LL	4.D\	.	.
16DD/	.	16A/	.	.	.
16DDD/	.	16B-/	.	.	.
16DD/	.	16G/	.	.	.
16DDD/	.	16A/	.	.	.
16DD/JJ	.	16F/JJ	.	.	[
!!LO:LB:g=original
=50	=50	=50	=50	=50	=50
!	!	!LO:TX:b:i:t=poco rallent,	!	!	!
16DDD/LL	.	16d/LL	2.D\	.	.
16DD/	.	16A/	.	.	.
16DDD/	.	16B-/	.	.	.
16DD/	.	16G/	.	.	.
16DDD/	.	16A/	.	.	.
16DD/JJ	.	16F#X/JJ	.	.	.
16DDD/LL	.	16d/LL	.	.	.
16DD/	.	16A/	.	.	.
16DDD/	.	16B-/	.	.	.
16DD/	.	16G/	.	.	.
16DDD/	.	16A/	.	.	.
16DD/JJ	.	16F#/JJ)	.	.	.
16DDD/LL	.	(16d/LL	4.D\	.	.
16DD/	.	16A/	.	.	.
16DDD/	.	16B-/	.	.	.
16DD/	.	16G/	.	.	.
16DDD/	.	16A/	.	.	.
16DD/JJ	.	16F#/JJ	.	.	.
16DDD/LL	.	16d/LL	4.D\	.	.
16DD/	.	16A/	.	.	.
16DDD/	.	16B-/	.	.	.
16DD/	.	16G/	.	.	.
16DDD/	.	16A/	.	.	.
16DD/JJ	.	16F#/JJ	.	.	.
=51	=51	=51	=51	=51	=51
2.AA: 2.DD: 2.DDD;:/	.	2.d: 2.F#X;:/)	1.r	.	.
2.r	.	2.r	.	.	.
*	*	*v	*v	*	*
==	==	==	==	==
*-	*-	*-	*-	*-
!!!system-decoration: [(s1,s2)]
!!!ENC: Filip Voros
!!!END: 2022-07-24
!!!ENC: Urszula Świątek
!!!END: 2022-08-17
!!!YEC: Copyright 2022 Narodowy Instytut Fryderyka Chopina (https://polishscores.org)
!!!YEM: License CC-BY-4.0 (https://creativecommons.org/licenses/by/4.0)
